assets/images/img_menu.svg

<svg width="20" height="20" viewBox="0 0 20 20" fill="none" xmlns="http://www.w3.org/2000/svg">
<g clip-path="url(#clip0_2713_30229)">
<path d="M2.5 15H17.5V13.3333H2.5V15ZM2.5 10.8333H17.5V9.16667H2.5V10.8333ZM2.5 5V6.66667H17.5V5H2.5Z" fill="#222222"/>
</g>
<defs>
<clipPath id="clip0_2713_30229">
<rect width="20" height="20" fill="white"/>
</clipPath>
</defs>
</svg>

<svg xmlns="http://www.w3.org/2000/svg" width="20" height="20" fill="none" viewBox="0 0 20 20"><g clip-path="url(#a)"><path fill="#222" d="M2.5 15h15v-1.667h-15V15Zm0-4.167h15V9.167h-15v1.666ZM2.5 5v1.667h15V5h-15Z"/></g><defs><clipPath id="a"><path fill="#fff" d="M0 0h20v20H0z"/></clipPath></defs></svg>
